svgs/regular/memo.svg

<svg xmlns="http://www.w3.org/2000/svg" viewBox="0 0 384 512"><!-- Font Awesome Pro 6.0.0-alpha2 by @fontawesome - https://fontawesome.com License - https://fontawesome.com/license (Commercial License) --><path d="M264 224H120C106.75 224 96 234.75 96 248S106.75 272 120 272H264C277.25 272 288 261.25 288 248S277.25 224 264 224ZM168 320H120C106.75 320 96 330.75 96 344S106.75 368 120 368H168C181.25 368 192 357.25 192 344S181.25 320 168 320ZM264 128H120C106.75 128 96 138.75 96 152S106.75 176 120 176H264C277.25 176 288 165.25 288 152S277.25 128 264 128ZM320 0H64C28.654 0 0 28.652 0 64V448C0 483.346 28.654 512 64 512H320C355.346 512 384 483.346 384 448V64C384 28.652 355.346 0 320 0ZM336 448C336 456.822 328.822 464 320 464H64C55.178 464 48 456.822 48 448V64C48 55.178 55.178 48 64 48H320C328.822 48 336 55.178 336 64V448Z"/></svg>

<svg xmlns="http://www.w3.org/2000/svg" viewBox="0 0 384 512"><!--! Font Awesome Pro 6.0.0-alpha3 by @fontawesome - https://fontawesome.com License - https://fontawesome.com/license (Commercial License) --><path d="M264 224h-144C106.8 224 96 234.8 96 248S106.8 272 120 272h144C277.3 272 288 261.3 288 248S277.3 224 264 224zM168 320h-48C106.8 320 96 330.8 96 344s10.75 24 24 24h48c13.25 0 24-10.75 24-24S181.3 320 168 320zM264 128h-144C106.8 128 96 138.8 96 152S106.8 176 120 176h144C277.3 176 288 165.3 288 152S277.3 128 264 128zM320 0H64C28.65 0 0 28.65 0 64v384c0 35.35 28.65 64 64 64h256c35.35 0 64-28.65 64-64V64C384 28.65 355.3 0 320 0zM336 448c0 8.822-7.178 16-16 16H64c-8.822 0-16-7.178-16-16V64c0-8.822 7.178-16 16-16h256c8.822 0 16 7.178 16 16V448z"/></svg>
